icons/folder-project.svg

<svg xmlns="http://www.w3.org/2000/svg" viewBox="0 0 16 16">
<path id="folder" fill="#1e88e5" d="m6.922 3.768-.644-.536A1 1 0 0 0 5.638 3H2a1 1 0 0 0-1 1v8a1 1 0 0 0 1 1h12a1 1 0 0 0 1-1V5a1 1 0 0 0-1-1H7.562a1 1 0 0 1-.64-.232" />
<path id="motive" fill="#bbdefb" d="m 13.677,10.4355 2.323,2.236 -1.37,1.312 -2.3065,-2.2355 v -0.3685 l 0.9735,-0.944 z M 14.0525,9.424 13.6525,9.04 11.676,10.9595 V 11.748 L 9.353,14 8,12.6715 l 2.306,-2.236 h 0.813 l 0.322,-0.312 -1.585,-1.54 H 9.3205 L 8.1605,7.448 9.2415,6.4 10.397,7.52 v 0.524 l 1.605,1.536 1.097,-1.064 -0.3955,-0.404 0.536,-0.5245 h -1.098 L 11.8735,7.3275 13.24,6 13.5125,6.2635 V 7.328 L 14.053,6.7995 15.4065,8.112 a 1.11,1.11 0 0 1 0,1.592 L 14.593,8.8995 Z" />
</svg>

<svg xmlns="http://www.w3.org/2000/svg" viewBox="0 0 16 16"><path id="folder" fill="#1e88e5" d="m6.922 3.768-.644-.536A1 1 0 0 0 5.638 3H2a1 1 0 0 0-1 1v8a1 1 0 0 0 1 1h12a1 1 0 0 0 1-1V5a1 1 0 0 0-1-1H7.562a1 1 0 0 1-.64-.232"/><path id="motive" fill="#bbdefb" d="M13.677 10.436 16 12.67l-1.37 1.313-2.307-2.236v-.368l.974-.945zm.376-1.012-.4-.384-1.977 1.92v.788L9.353 14 8 12.672l2.306-2.237h.813l.322-.312-1.585-1.54H9.32L8.16 7.449 9.243 6.4l1.155 1.12v.524l1.605 1.536L13.1 8.516l-.395-.404.535-.524h-1.098l-.268-.26L13.24 6l.272.263v1.065l.541-.529 1.353 1.313a1.11 1.11 0 0 1 0 1.592l-.813-.805Z"/></svg>
